X: 555
%
U:~=!turn!
T: The Red Coat
C:Pipe tune
O:Scotland
B:Keith Norman MacDonald : "The Skye collection of the best reels & strathspeys extant" : 1887
Z:Ralph Palmer
N:The repeat at the end the B section really was there, in the printed music.
R:Strathspey
M:C
L:1/8
K:A mixolydian
g | B<AB<d e>deg | GGBA G>GGd | B>AB<d e>de>a | g<eg>B A>A A :|
g | a>da>g e>de>g | G<GB>A G>GGg | a>da>g e>de<a | g<eg>B A>AAg |
a>da>g e>de<g | G<GB>A G>GGd | B<AB<d e>de<a | g<eg>B A>A A :|


